X:171
T:Whistler at the Wake
Z: id:dc-jig-147
M:6/8
L:1/8
K:D Major
E|F2A AFA|Bcd efg|fed BdB|AFD EDE|!
F2A AFA|Bcd efg|fed BdB|AFD D2:|!
e|fed BdB|AFE E2B|AFB AFB|AFB ABd|!
fed BdB|AFE E2e|fed BdB|AFD D2:|!